styles/4/Numix/96/places/green-folder-download.svg

<?xml version="1.0" encoding="UTF-8" standalone="no"?>
<!-- Created with Inkscape (http://www.inkscape.org/) -->

<svg
   xmlns:dc="http://purl.org/dc/elements/1.1/"
   xmlns:cc="http://creativecommons.org/ns#"
   xmlns:rdf="http://www.w3.org/1999/02/22-rdf-syntax-ns#"
   xmlns:svg="http://www.w3.org/2000/svg"
   xmlns="http://www.w3.org/2000/svg"
   xmlns:sodipodi="http://sodipodi.sourceforge.net/DTD/sodipodi-0.dtd"
   xmlns:inkscape="http://www.inkscape.org/namespaces/inkscape"
   width="96"
   height="96"
   id="svg2"
   version="1.1"
   inkscape:version="0.91 r"
   sodipodi:docname="green-folder-download.svg"
   inkscape:export-filename="/media/Data/Main/Visuals/Icons/Numix/Desktop/repos/numix-wiki/Gjorgi/Numix-folders/48/New/folder-144.png"
   inkscape:export-xdpi="270"
   inkscape:export-ydpi="270">
  <defs
     id="defs4" />
  <sodipodi:namedview
     id="base"
     pagecolor="#ffffff"
     bordercolor="#666666"
     borderopacity="1.0"
     inkscape:pageopacity="0.0"
     inkscape:pageshadow="2"
     inkscape:zoom="4.9240816"
     inkscape:cx="24.115213"
     inkscape:cy="39.197895"
     inkscape:document-units="px"
     inkscape:current-layer="layer1"
     showgrid="true"
     inkscape:window-width="1280"
     inkscape:window-height="998"
     inkscape:window-x="0"
     inkscape:window-y="0"
     inkscape:window-maximized="1"
     showguides="true"
     inkscape:guide-bbox="true">
    <inkscape:grid
       type="xygrid"
       id="grid2985"
       empspacing="5"
       visible="true"
       enabled="true"
       snapvisiblegridlinesonly="true" />
  </sodipodi:namedview>
  <metadata
     id="metadata7">
    <rdf:RDF>
      <cc:Work
         rdf:about="">
        <dc:format>image/svg+xml</dc:format>
        <dc:type
           rdf:resource="http://purl.org/dc/dcmitype/StillImage" />
        <dc:title />
      </cc:Work>
    </rdf:RDF>
  </metadata>
  <g
     inkscape:label="Layer 1"
     inkscape:groupmode="layer"
     id="layer1"
     transform="translate(0,-956.3622)">
    <path
       style="fill:#388e3c;fill-opacity:1;stroke:none"
       d="m 13.8,974.36218 68.4,0 c 1.8,0 3.8,2.00001 3.8,4.00001 l 0,8 c 0,2.216 -1.6948,4 -3.8,4 l -68.4,0 c -2.1052,0 -3.8,-1.784 -3.8,-4 l 0,-12.00001 z"
       id="path3811"
       inkscape:connector-curvature="0" />
    <path
       style="fill:#388e3c;fill-opacity:1;stroke:none"
       d="m 10,976.36219 c 0,-4.00001 0,-6.00001 3.636364,-6.00001 l 12.727272,0 c 3.636364,0 3.636364,2 3.636364,6.00001 z"
       id="rect3760"
       inkscape:connector-curvature="0"
       sodipodi:nodetypes="csscc" />
    <path
       style="opacity:0.02999998;fill:#000000;fill-opacity:1;stroke:none"
       d="m 10,982.36219 0,10 76,0 0,-10 z"
       id="path3807"
       inkscape:connector-curvature="0" />
    <rect
       style="fill:#66bb6a;fill-opacity:1;stroke:none"
       id="rect2990"
       width="84"
       height="50.000027"
       x="6"
       y="986.36218"
       rx="4"
       ry="4.0000019" />
    <path
       style="opacity:0.05;fill:#000000;fill-opacity:1;stroke:none"
       d="m 30,974.36218 0,2.00001 3.8125,0 48.375,0 c 1.8,0 3.8125,2 3.8125,4 l 0,-2 c 0,-2 -2.0125,-4.00001 -3.8125,-4.00001 l -48.375,0 z"
       id="path3813"
       inkscape:connector-curvature="0"
       sodipodi:nodetypes="cccscsscc" />
    <path
       style="opacity:0.05;fill:#000000;fill-opacity:1;stroke:none"
       d="m 13.625,970.36218 c -3.6363636,0 -3.625,2 -3.625,6.00001 l 0.0625,0 c 0.106836,-2.62101 0.6189,-4.00001 3.5625,-4.00001 l 12.75,0 c 2.9436,0 3.455664,1.379 3.5625,4.00001 l 0.0625,0 c 0,-4.00001 0.0114,-6.00001 -3.625,-6.00001 l -12.75,0 z"
       id="path3818"
       inkscape:connector-curvature="0" />
    <path
       style="opacity:0.1;fill:#ffffff;fill-opacity:1;stroke:none"
       d="m 10,986.36219 c -2.216,0 -4,1.784 -4,4 l 0,2 c 0,-2.216 1.784,-4 4,-4 l 76,0 c 2.216,0 4,1.784 4,4 l 0,-2 c 0,-2.216 -1.784,-4 -4,-4 l -76,0 z"
       id="rect2991"
       inkscape:connector-curvature="0" />
    <path
       style="opacity:1.0;fill:#448647;fill-opacity:1;stroke:none"
       d="M 48 38 C 45.784 38 44 39.783999 44 42 L 44 52 L 40 52 C 38 52 38 52 40 54 L 46 60 C 48 62 48 62 50 60 L 56 54 C 58 52 58 52 56 52 L 52 52 L 52 42 C 52 39.783999 50.216 38 48 38 z M 34 54 C 32.892 54 32 54.891999 32 56 L 32 66 C 32 67.108001 32.892 68 34 68 L 62 68 C 63.108 68 64 67.108001 64 66 L 64 56 C 64 54.891999 63.108 54 62 54 C 60.892 54 60 54.891999 60 56 L 60 64 L 36 64 L 36 56 C 36 54.891999 35.108 54 34 54 z "
       transform="translate(0,956.3622)"
       id="rect2989" />
  </g>
</svg>

<!-- Created with Inkscape (http://www.inkscape.org/) -->
<svg xmlns="http://www.w3.org/2000/svg" viewBox="0 0 96 96">
 <g transform="translate(0,-956.3622)">
  <path d="m 13.8 974.36 68.4 0 c 1.8 0 3.8 2 3.8 4 l 0 8 c 0 2.216 -1.695 4 -3.8 4 l -68.4 0 c -2.105 0 -3.8 -1.784 -3.8 -4 l 0 -12 z" style="fill:#388e3c;fill-opacity:1;stroke:none"/>
  <path d="m 10 976.36 c 0 -4 0 -6 3.636 -6 l 12.727 0 c 3.636 0 3.636 2 3.636 6 z" style="fill:#388e3c;fill-opacity:1;stroke:none"/>
  <path d="m 10 982.36 0 10 76 0 0 -10 z" style="fill:#000;opacity:0.03;fill-opacity:1;stroke:none"/>
  <rect width="84" height="50" x="6" y="986.36" rx="4" style="fill:#66bb6a;fill-opacity:1;stroke:none"/>
  <path d="m 30 974.36 0 2 3.813 0 48.38 0 c 1.8 0 3.813 2 3.813 4 l 0 -2 c 0 -2 -2.01 -4 -3.813 -4 l -48.37 0 z" style="fill:#000;opacity:0.05;fill-opacity:1;stroke:none"/>
  <path d="m 13.625 970.36 c -3.636 0 -3.625 2 -3.625 6 l 0.063 0 c 0.107 -2.621 0.619 -4 3.563 -4 l 12.75 0 c 2.944 0 3.456 1.379 3.563 4 l 0.063 0 c 0 -4 0.011 -6 -3.625 -6 l -12.75 0 z" style="fill:#000;opacity:0.05;fill-opacity:1;stroke:none"/>
  <path d="m 10 986.36 c -2.216 0 -4 1.784 -4 4 l 0 2 c 0 -2.216 1.784 -4 4 -4 l 76 0 c 2.216 0 4 1.784 4 4 l 0 -2 c 0 -2.216 -1.784 -4 -4 -4 l -76 0 z" style="fill:#fff;opacity:0.1;fill-opacity:1;stroke:none"/>
  <path d="m 48 38 c -2.216 0 -4 1.784 -4 4 l 0 10 l -4 0 c -2 0 -2 0 0 2 l 6 6 c 2 2 2 2 4 0 l 6 -6 c 2 -2 2 -2 0 -2 l -4 0 l 0 -10 c 0 -2.216 -1.784 -4 -4 -4 z m -14 16 c -1.108 0 -2 0.892 -2 2 l 0 10 c 0 1.108 0.892 2 2 2 l 28 0 c 1.108 0 2 -0.892 2 -2 l 0 -10 c 0 -1.108 -0.892 -2 -2 -2 c -1.108 0 -2 0.892 -2 2 l 0 8 l -24 0 l 0 -8 c 0 -1.108 -0.892 -2 -2 -2 z" transform="translate(0,956.3622)" style="fill:#448647;opacity:1;fill-opacity:1;stroke:none"/>
 </g>
</svg>
